dist/img/button-bg-1.svg

<svg width="259" height="62" viewBox="0 0 259 62" fill="none" xmlns="http://www.w3.org/2000/svg">
<path d="M258.348 31C258.348 34.9845 254.972 38.934 248.464 42.6319C241.994 46.3074 232.6 49.6341 220.948 52.4342C197.652 58.0324 165.443 61.5 129.848 61.5C94.2532 61.5 62.0443 58.0324 38.7482 52.4342C27.0962 49.6341 17.7019 46.3074 11.2326 42.6319C4.72401 38.934 1.34814 34.9845 1.34814 31C1.34814 27.0155 4.72401 23.066 11.2326 19.3681C17.7019 15.6926 27.0962 12.3659 38.7482 9.56585C62.0443 3.96757 94.2532 0.5 129.848 0.5C165.443 0.5 197.652 3.96757 220.948 9.56585C232.6 12.3659 241.994 15.6926 248.464 19.3681C254.972 23.066 258.348 27.0155 258.348 31Z" stroke="white"/>
</svg>

<svg width="259" height="62" fill="none" xmlns="http://www.w3.org/2000/svg"><path d="M258.348 31c0 3.984-3.376 7.934-9.884 11.632-6.47 3.675-15.864 7.002-27.516 9.802-23.296 5.598-55.505 9.066-91.1 9.066-35.595 0-67.804-3.468-91.1-9.066-11.652-2.8-21.046-6.127-27.515-9.802C4.724 38.934 1.348 34.984 1.348 31c0-3.985 3.376-7.934 9.885-11.632 6.469-3.675 15.863-7.002 27.515-9.802C62.044 3.968 94.253.5 129.848.5c35.595 0 67.804 3.468 91.1 9.066 11.652 2.8 21.046 6.127 27.516 9.802 6.508 3.698 9.884 7.648 9.884 11.632Z" stroke="#fff"/></svg>
